X:100
T:O Sacred Head, Now Wounded
%%stretchlast false
M:4/4
L:1/4
K:Bb clef=C1
"^I"[B,,F,B,D] "^IV"[E,B,G] "^I¹"[D,F,B,F] "^IV¹"[G,,G,B,E]/ "^V7¹"[A,,F,CE]/ | "^I"[B,,F,CD]/ [B,,F,B,D]/ "^ii7¹"[E,,G,B,C] "^V"[F,,F,A,C] "^I"[B,,F,B,D] | "^♭vi°¹"[A,,_G,CA] "^vi"[G,,G,B,B]/ "^vii"[A,,G,CB]/ "^vi¹"[B,,G,DB]/ "^vi"[C,G,DB]/ [D,G,DA]/ [D,G,DG]/ | "^III"[D,,_G,DA]/ "^III7"[D,,_G,CA]/ "^vi"[G,,G,B,G]3 | "^I"[B,,F,B,D] "^IV"[E,B,G] "^I¹"[D,F,B,F] "^IV¹"[G,,G,B,E]/ "^V7¹"[A,,F,CE]/ | "^I"[B,,F,CD]/ [B,,F,B,D]/ "^ii7¹"[E,,G,B,C] "^V"[F,,F,A,C] "^I"[B,,F,B,D] | "^♭vi°¹"[A,,_G,CA] "^vi"[G,,G,B,B]/ "^vii"[A,,G,CB]/ "^vi¹"[B,,G,DB]/ "^vi"[C,G,DB]/ [D,G,DA]/ [D,G,DG]/ | "^III"[D,,_G,DA]/ "^III7"[D,,_G,CA]/ "^vi"[G,,G,B,G]3 | [G,,G,DB]/ "^vi7"[G,,F,DB]/ "^vii°¹"[C,E,CA]/ "^ii"[C,G,EG]/ "^I¹"[D,B,DF]/ "^iii7"[D,A,CF]/ "^IV"[E,G,B,G]/ "^vi7²"[D,F,B,G]/ | "^vii°¹"[C,E,EA]/ "^V7²"[C,F,EA]/ "^IV²"[B,,G,EB] "^I"[B,,F,DB]/ "^ii7³"[B,,E,CB]/ "^I"[B,,F,DB] | [B,,B,DF] "^IV"[E,B,EG]/ "^IVmaj7³"[D,B,EG]/ "^iiiø7³"[C,_A,DF]/ [=B,,_A,DF]/ "^ii"[C,G,DE]/ "^IV7³"[D,G,DE]/ | "^ii¹"[E,G,CE]/ "^ii"[F,G,CE]/ "^VI"[G,=B,D]3 | "^II7¹"[=E,G,CB] "^V"[F,CA]/ "^i"[F,CB]/ "^II¹"[=E,G,Cc] "^I¹"[D,F,DB]/ "^vi²"[D,G,=EB]/ | "^V²"[C,A,FA]/ [C,F,FA]/ "^VI7¹"[=B,,DFG] "^V/V"[C,C=EG] "^V"[F,,CFA] | "^I"[B,,F,B,D]/ "^Imaj7"[B,,F,A,D]/ "^ii"[C,E,G,E]/ [C,E,A,E]/ "^I¹"[D,F,B,D]/ "^I"[E,F,B,D]/ "^i"[F,B,C]/ "^v"[F,G,C]/ | "^V"[F,,F,A,F] "^I"[B,,F,B,D]3 |]
